lib/healthicons/icons/solid/places/village.svg

<svg fill="none" height="48" viewBox="0 0 48 48" width="48" xmlns="http://www.w3.org/2000/svg"><g fill="#333"><path d="m16.4453 6.16795c.3359-.22393.7735-.22393 1.1094 0l6 3.99995c.2782.1855.4453.4977.4453.8321v8c0 .5523-.4477 1-1 1h-4v-7h-4v7h-4c-.5523 0-1-.4477-1-1v-8c0-.3344.1671-.6466.4453-.8321z"/><path d="m33.5039 12.1318c.3074-.1757.6848-.1757.9922 0l7 4c.3116.178.5039.5093.5039.8682v10c0 .5523-.4477 1-1 1h-5v-8h-4v8h-5c-.5523 0-1-.4477-1-1v-10c0-.3589.1923-.6902.5039-.8682z"/><path d="m6.55279 28.1056 8.00001-4c.2815-.1408.6129-.1408.8944 0l8 4c.3388.1694.5528.5156.5528.8944v12c0 .5523-.4477 1-1 1h-6v-9h-4v9h-6c-.55228 0-1-.4477-1-1v-12c0-.3788.214-.725.55279-.8944z"/></g></svg>

<svg width="48" height="48" viewBox="0 0 48 48" fill="none" xmlns="http://www.w3.org/2000/svg">
<path d="M16.4453 6.16795C16.7812 5.94402 17.2188 5.94402 17.5547 6.16795L23.5547 10.1679C23.8329 10.3534 24 10.6656 24 11V19C24 19.5523 23.5523 20 23 20H19V13H15V20H11C10.4477 20 10 19.5523 10 19V11C10 10.6656 10.1671 10.3534 10.4453 10.1679L16.4453 6.16795Z" fill="#333333"/>
<path d="M33.5039 12.1318C33.8113 11.9561 34.1887 11.9561 34.4961 12.1318L41.4961 16.1318C41.8077 16.3098 42 16.6411 42 17V27C42 27.5523 41.5523 28 41 28H36V20H32V28H27C26.4477 28 26 27.5523 26 27V17C26 16.6411 26.1923 16.3098 26.5039 16.1318L33.5039 12.1318Z" fill="#333333"/>
<path d="M6.55279 28.1056L14.5528 24.1056C14.8343 23.9648 15.1657 23.9648 15.4472 24.1056L23.4472 28.1056C23.786 28.275 24 28.6212 24 29V41C24 41.5523 23.5523 42 23 42H17V33H13V42H7C6.44772 42 6 41.5523 6 41V29C6 28.6212 6.214 28.275 6.55279 28.1056Z" fill="#333333"/>
</svg>
